X:1
T: Cairngorm
T: Cheap Meal
R:Reel
Q: 232
K:D
M:4/4
L:1/8
|:B|AF ED dF ED|EB BA BE Ed|AF ED de fe|dB AF AD DB|
AF ED dF ED|EB BA BE Ed|AF ED de fe|dB AF AD Df|
ab af de fd|eb ba be ef|ab af de fe|dB AF AD Df|
ab af de fd|eb ba be ef|ab ef dg fe|dB AF AD D:|
